public/icons/facebook.svg

<svg width="48" height="48" viewBox="0 0 48 48" fill="none" xmlns="http://www.w3.org/2000/svg">
    <rect x="0.5" y="0.5" width="47" height="47" rx="23.5" stroke="white" />
    <path
        d="M29.8727 25.5619L30.5566 21.2166H26.3437V18.3922C26.3437 17.204 26.9319 16.043 28.8126 16.043H30.7549V12.3427C29.6238 12.1624 28.4809 12.0648 27.3354 12.0508C23.868 12.0508 21.6043 14.1352 21.6043 17.9034V21.2166H17.7607V25.5619H21.6043V36.0721H26.3437V25.5619H29.8727Z"
        fill="white" />
</svg>

<svg xmlns="http://www.w3.org/2000/svg" width="48" height="48" fill="none"><rect width="47" height="47" x=".5" y=".5" stroke="#fff" rx="23.5"/><path fill="#fff" d="m29.873 25.562.684-4.345h-4.213v-2.825c0-1.188.588-2.349 2.469-2.349h1.942v-3.7a23.552 23.552 0 0 0-3.42-.292c-3.467 0-5.73 2.084-5.73 5.852v3.314H17.76v4.345h3.843v10.51h4.74v-10.51h3.529Z"/></svg>
